img/icons/phone.svg

<svg width="15" height="20" viewBox="0 0 15 20" fill="none" xmlns="http://www.w3.org/2000/svg">
<path fill-rule="evenodd" clip-rule="evenodd" d="M4.10059 2.05604C4.10059 2.05604 6.3088 1.20517 7.63165 3.59166C8.95451 5.97815 6.71751 6.77708 6.71751 6.77708C6.71751 6.77708 4.06738 6.20754 6.37264 10.3663C8.67789 14.5251 9.578 11.9375 9.578 11.9375C9.578 11.9375 11.8033 11.1176 13.0702 13.4031C14.3371 15.6886 12.2966 16.842 12.2966 16.842C12.2966 16.842 8.51168 19.6179 4.08602 11.6338C-0.33964 3.64972 4.10059 2.05604 4.10059 2.05604Z" fill="#409AFF"/>
</svg>

<svg width="15" height="20" fill="none" xmlns="http://www.w3.org/2000/svg"><path fill-rule="evenodd" clip-rule="evenodd" d="M4.1 2.056s2.209-.85 3.532 1.536-.914 3.185-.914 3.185-2.65-.57-.345 3.59c2.305 4.158 3.205 1.57 3.205 1.57s2.225-.82 3.492 1.466-.773 3.439-.773 3.439-3.785 2.776-8.211-5.208.015-9.578.015-9.578z" fill="#409AFF"/></svg>
